!!!OTL: Changqi minge xiang zongli
!!!ARE: Asia, China,ÿHubei Tianmen
!! I, 364
!!!SCT: C2130
!!!YEM: Copyright 1995, estate of Helmut Schaffrath.
**kern
*ICvox
*Ivox
*M4/4
*k[b-e-]
*B-:
{8ccc
16bb-
16ccc
8ddd
16fff
16ddd
8ccc
16ddd
16ccc
8bb-
8gg
=1
8bb-
16ccc
16ddd
16ccc
16bb-
8gg
2ff}
=2
{16gg
16bb-
16ff
16gg
8bb-
8ccc
8.fff
16ddd
16ccc
16bb-
8gg
=3
8bb-
16ff
16bb-
16gg
16ff
8dd
2cc}
=4
{8dd
16ff
16dd
8cc
16b-
16ff
2dd
=5
8.ff
16gg
8ccc
8aa
16gg
16ff
4.gg}
=6
{16ff
16gg
4bb-
8ccc
16gg
16bb-
16gg
16ff
4dd
=7
8.ff
16dd
16cc
16b-
16cc
16dd
2ff
=8
8b-
16b-
16cc
8ff
16ff
16dd
16cc
16b-
4.cc}
=9
{8bb-
16bb-
16ccc
8fff
16fff
16ddd
8ccc
16ddd
16ccc
8.bb-
16gg
=10
16ff
16gg
4bb-
8ccc
16gg
16bb-
16gg
16ff
4dd}
=11
{8ccc
16ddd
16fff
8ddd
8ccc
16ddd
16ccc
4bb-
8ccc
=12
1bb-}
==
!!!AGN: Xiaodiao, Liuduan chunjing diao
!!!ONB: ESAC (Essen Associative Code) Database: SENGANSU
!!!AMT: simple quadruple
!!!AIN: vox
!!!EED: Helmut Schaffrath
!!!EEV: 1.0
*-
